X:1
T:When Christ Was Born of Mary Free
T:When Christ Was Born of Mary Free
T:Arthur Henry Brown, 1871
T:Harleian Manuscript, ca. 1456
T:Public Domain Courtesy of the Cyber Hymnal™
T:Public Domain Courtesy of the Cyber Hymnal™
C:Arthur Henry Brown, 1871
Z:Public Domain
Z:Courtesy of the Cyber Hymnal™
%%score ( 1 2 ) ( 3 4 )
L:1/8
Q:1/4=95
M:4/4
K:D
V:1 treble 
V:2 treble 
V:3 bass 
V:4 bass 
V:1
 [DG]2 | [Dd]2 [FB]2 [EG]2 (AB) | [EAc]2 (BA) [DGB]2 (AG) | ([DF]E) ([ce][Bd]) ([EAc][DGB]) (AG) | %4
w: ||||
w: ||||
w: ||||
w: ||||
 G3 z F [B,DG]2 | [DG]2 | ([Dd][Dd]) [FB]2 G2 (AB) | [Ac]2 (BA) [GB]2 [GB]2 | %8
w: 1.~When * *||Christ * was born of *|Ma- ry * free, In|
w: 2.~ * *||Herdsmen * be- held these *|an- gels * bright, To|
w: 3.~The * *||King * is come to *|save man- * kind, ~|
w: 4.~ * *||Then, * dear Lord, for *|Thy great * grace Grant|
 [DA]3 [DA] [GB]2 [Fd]2 | [Ge]2 (dc) [Fd]4 | [FA]2 [=FA][FB] [Ac]2 [Ac]2 x2 | G3 (z A) [GB]4 || %12
w: Beth- le- hem that|fair ci- * ty,|An- gels sang there with|mirth * and|
w: them ap- pear- ing|with great * light,|Who said “God’s Son is|born * to-|
w: As in Scrip- ture|truths we * find,|There- fore this song we|have * in|
w: us in bliss to|see Thy * face,|That we may sing to|Thy * sol-|
!p! [Gd]3 [Ge] [Gd]2 ([Fc][GB]) | A3 z G G2 z2 |!ff! D3 D D2 D2 | E2 G2 G4 | %16
w: * glee, * * *||||
w: * night,” * * *||||
w: * mind, * * *||||
w: * ace, * * *||||
 [FA]3 [FB] [Gc]2 [Gc]2 | [GB]2 [FA]2 [GB]4 | d3 [Fd] G[DA] Bc | d2 [Ac][GB] [FA]4 | %20
w: ||||
w: ||||
w: ||||
w: ||||
 B3 [Ec] [Dd]2 G2 | [FA]2 [EG]2 !fermata!G2 z2 |] %22
w: ||
w: ||
w: ||
w: ||
V:2
 x2 | x6 E2 | x2 [DF]2 x D2 x | x E E2 x C2 x | [B,D]2 [A,D]2 x3 | x2 | x4 G2 E2 | x2 F2 x4 | x8 | %9
 x2 E2 x4 | x10 | E2 _E2 x5 || x8 | (G2 F2) G2 x3 | D3 D D2 D2 | E2 G2 G4 | x8 | x8 | %18
 A2 G G G2 x2 | DG x6 | DG F x2 G2 x | x4 G2 x2 |] %22
V:3
 [G,B,]2 | [F,A,]2 [D,D]2 [E,B,]2 C,2 | A,,2 D,2 G,2 [B,,G,]2 | [C,G,]2 (A,,B,,) (C,D,) E,2 | %4
w: ||||
 D,2 D,,2 G,,2 x | [G,B,]2 | ([F,A,][F,A,]) [D,D]2 [E,B,]2 [C,E]2 | [A,,E]2 [D,D]2 [G,D]2 [G,D]2 | %8
w: ||||
 [F,D]3 [F,D] [G,D]2 [B,D]2 | [E,B,]2 A,2 [D,A,]4 | [D,D]2 [D,D][D,D] E2 z x3 | %11
w: |* In *||
 [C,C]2 [C,C]2 [G,D]4 x ||!p! B,3 C [B,D]2 D2 | (D2 z) D, [G,,B,]2 z2 x |!ff! D,3 D, D,2 D,2 | %15
w: |ex- cel- sis glo-|ri- a, In|ex- cel- sis glo-|
 E,2 G,2 G,4 | [D,D]3 [D,D] [C,E]2 [C,E]2 | [G,D]2 [D,D]2 [G,D]4 | %18
w: ri- a, In|ex- cel- sis glo-|ri- a, In|
 ([DF][CE]) ([B,D][A,C]) ([G,B,][F,A,]) (G,A,) | [B,,B,]2 (ED) [D,D]4 | %20
w: ex- * cel- * sis * glo- *|ri- a, * In|
 [G,,D]3 [A,,C] [B,,B,]2 [E,C]2 | [D,D]2 [D,C]2 !fermata![G,,B,]2 z2 |] %22
w: ex- cel- sis glo-|ri- a. *|
V:4
 x2 | x8 | x8 | x8 | x7 | x2 | x8 | x8 | x8 | x2 A,2 x4 | x4 A,,3 (E2 B,,) | x9 || %12
 B,3 C x (A,G,) x | D,3 C2 x4 | D,3 D, D,2 D,2 | E,2 G,2 G,4 | x8 | x8 | x6 E,2 | x2 C,2 x4 | x8 | %21
 x8 |] %22

